X:923
T:Green Mountain Petronella
S:Learned from Pete Coe, England
Z:Nigel Gatherer
M:4/4
L:1/8
K:G
D2 G2 GFGE | D2 B2 BGAB | cBcB ABcd | e2 d2 d4  |
D2 G2 GFGE | D2 B2 BGAB | cBcB DEFG | A2 G2 G4 :|
[g4B4] [f4d4] | [e4c4] [d4F4] | edef gfeA | B2 A2 A4 |
[g2B2][g2B2] [f2d2][f2d2] | [e2c2][e2c2] [d4F4] |
edef gfeG | A2 G2 G4 :|
